X: 14317
T: Gallagher's Frolics
R: jig
M: 6/8
K: Edorian
|:~E3 GFG|~B3 dBA|BdB BAB|GAB AFD|
~E3 GFG|~B3 dBA|BAG FAF|1 GEE E2B,:|2 GEE E2A||
|:Bee gfe|~g3 bge|dcd fed|fag fed|
e^de gfe|dfe dBA|BAG FAF|1 GEE E2A:|2 GEE E2D||

